app/dist/common/images/energy-transition-minerals-ltd.svg

<svg height="18" viewBox="0 0 18 18" width="18" xmlns="http://www.w3.org/2000/svg"><path d="m0 0h18v18h-18z" fill="#f0f3fa"/><path d="m4 4v3.54a6.56 6.56 0 0 1 6.48 6.46h3.52a10.1 10.1 0 0 0 -10-10z" fill="#004b4d"/><path d="m4 9.33v1.24a3.4 3.4 0 0 0 3.4 3.43h1.27a4.77 4.77 0 0 0 -4.67-4.67z" fill="#d9734e"/><path d="m14 8.08v-4.08h-4.15a7.8 7.8 0 0 1 4.15 4.08z" fill="#15dbcc"/></svg>

<!-- by TradingView --><svg width="18" height="18" viewBox="0 0 18 18" xmlns="http://www.w3.org/2000/svg"><path fill="#F0F3FA" d="M0 0h18v18H0z"/><path d="M4 4v3.54A6.56 6.56 0 0 1 10.48 14H14A10.1 10.1 0 0 0 4 4Z" fill="#004B4D"/><path d="M4 9.33v1.24A3.4 3.4 0 0 0 7.4 14h1.27A4.77 4.77 0 0 0 4 9.33Z" fill="#D9734E"/><path d="M14 8.08V4H9.85A7.8 7.8 0 0 1 14 8.08Z" fill="#15DBCC"/></svg>
